icon/fa/certificate.svg

<svg xmlns="http://www.w3.org/2000/svg" viewBox="0 0 512 512"><!--! Font Awesome Free 6.1.2 by @fontawesome - https://fontawesome.com License - https://fontawesome.com/license/free (Icons: CC BY 4.0, Fonts: SIL OFL 1.1, Code: MIT License) Copyright 2022 Fonticons, Inc.--><path d="m256 53.46 44.1-46.199c6.9-6.227 15-8.692 24.3-6.442 8.4 2.249 14.9 8.86 17 17.281l15.9 62.5 62-17.53c8.4-2.36 17.4-.02 23.5 6.12 5.3 6.15 8.5 15.14 6.1 23.5l-17.5 62.01 62.5 15.9c8.4 2.1 15 8.6 17.3 17 2.2 8.4-1.1 16.5-6.5 23.4l-46.2 45 46.2 44.1c5.4 6.9 8.7 15 6.5 24.3-2.3 8.4-8.9 14.9-17.3 17l-62.5 15.9 17.5 62c2.4 8.4-.8 17.4-6.1 23.5-6.1 5.3-15.1 8.5-23.5 6.1l-62-17.5-15.9 62.5c-2.1 8.4-8.6 15-17 17.3-9.3 2.2-17.4-1.1-24.3-6.5L256 458.5l-45 46.2c-6.9 5.4-15 8.7-23.4 6.5-8.4-2.3-14.9-8.9-17-17.3l-15.9-62.5-62.01 17.5c-8.36 2.4-17.35-.8-23.5-6.1-6.14-6.1-8.48-15.1-6.12-23.5l17.53-62-62.5-15.9a23.864 23.864 0 0 1-17.281-17c-2.25-9.3.215-17.4 6.442-24.3L53.46 256 7.261 211c-6.227-6.9-8.692-15-6.442-23.4 2.249-8.4 8.86-14.9 17.281-17l62.5-15.9-17.53-62.01a24.028 24.028 0 0 1 6.12-23.5 24.028 24.028 0 0 1 23.5-6.12L154.7 80.6l15.9-62.5a23.865 23.865 0 0 1 17-17.282c8.4-2.249 16.5.216 23.4 6.443l45 46.199z"/></svg>

<svg xmlns="http://www.w3.org/2000/svg" viewBox="0 0 512 512" height="1em" width="1em">
<!--! Font Awesome Free 6.1.2 by @fontawesome - https://fontawesome.com License - https://fontawesome.com/license/free (Icons: CC BY 4.0, Fonts: SIL OFL 1.1, Code: MIT License) Copyright 2022 Fonticons, Inc.-->
  <path d="M256 53.46L300.1 7.261C307 1.034 315.1-1.431 324.4 .8185C332.8 3.068 339.3 9.679 341.4 18.1L357.3 80.6L419.3 63.07C427.7 60.71 436.7 63.05 442.8 69.19C448.1 75.34 451.3 84.33 448.9 92.69L431.4 154.7L493.9 170.6C502.3 172.7 508.9 179.2 511.2 187.6C513.4 196 510.1 204.1 504.7 211L458.5 256L504.7 300.1C510.1 307 513.4 315.1 511.2 324.4C508.9 332.8 502.3 339.3 493.9 341.4L431.4 357.3L448.9 419.3C451.3 427.7 448.1 436.7 442.8 442.8C436.7 448.1 427.7 451.3 419.3 448.9L357.3 431.4L341.4 493.9C339.3 502.3 332.8 508.9 324.4 511.2C315.1 513.4 307 510.1 300.1 504.7L256 458.5L211 504.7C204.1 510.1 196 513.4 187.6 511.2C179.2 508.9 172.7 502.3 170.6 493.9L154.7 431.4L92.69 448.9C84.33 451.3 75.34 448.1 69.19 442.8C63.05 436.7 60.71 427.7 63.07 419.3L80.6 357.3L18.1 341.4C9.679 339.3 3.068 332.8 .8186 324.4C-1.431 315.1 1.034 307 7.261 300.1L53.46 256L7.261 211C1.034 204.1-1.431 196 .8186 187.6C3.068 179.2 9.679 172.7 18.1 170.6L80.6 154.7L63.07 92.69C60.71 84.33 63.05 75.34 69.19 69.19C75.34 63.05 84.33 60.71 92.69 63.07L154.7 80.6L170.6 18.1C172.7 9.679 179.2 3.068 187.6 .8185C196-1.431 204.1 1.034 211 7.261L256 53.46z"/>
</svg>
